images/why-choose-us-bg.svg

<svg width="1839" height="771" viewBox="0 0 1839 771" fill="none" xmlns="http://www.w3.org/2000/svg">
<path d="M1778 746.436C1757.64 748.727 1755.85 750.636 1753.56 771C1751.27 750.636 1749.36 748.727 1729 746.436C1749.36 744.145 1751.27 742.364 1753.56 722C1755.85 742.364 1757.64 744.145 1778 746.436Z" fill="#1E84B5"/>
<path d="M1717.85 725.189C1721.31 726.1 1725.54 726.77 1730.72 727.411C1725.54 728.056 1721.31 728.736 1717.85 729.66C1713.49 730.827 1710.29 732.393 1707.9 734.81C1705.5 737.226 1703.96 740.445 1702.81 744.825C1701.9 748.299 1701.23 752.532 1700.59 757.718C1699.94 752.532 1699.26 748.298 1698.34 744.823C1697.17 740.442 1695.61 737.224 1693.19 734.808C1690.78 732.393 1687.56 730.826 1683.18 729.66C1679.7 728.736 1675.47 728.056 1670.28 727.411C1675.47 726.77 1679.7 726.1 1683.18 725.189C1687.56 724.04 1690.77 722.497 1693.19 720.104C1695.61 717.711 1697.17 714.514 1698.34 710.149C1699.26 706.688 1699.94 702.463 1700.59 697.281C1701.23 702.463 1701.9 706.687 1702.81 710.148C1703.96 714.511 1705.5 717.708 1707.9 720.102C1710.29 722.496 1713.49 724.04 1717.85 725.189Z" stroke="#1E84B5" stroke-opacity="0.2"/>
<path d="M123.539 738.056C125.811 738.654 128.533 739.109 131.806 739.534C128.532 739.962 125.81 740.423 123.537 741.03C120.362 741.879 118.02 743.023 116.262 744.798C114.504 746.572 113.377 748.931 112.542 752.117C111.943 754.397 111.489 757.126 111.064 760.401C110.636 757.125 110.175 754.396 109.568 752.115C108.719 748.928 107.576 746.57 105.802 744.796C104.028 743.022 101.67 741.878 98.4825 741.03C96.2013 740.423 93.4725 739.962 90.1963 739.534C93.4719 739.109 96.2002 738.654 98.4807 738.056C101.667 737.22 104.025 736.094 105.8 734.336C107.575 732.578 108.719 730.236 109.567 727.06C110.175 724.788 110.636 722.065 111.064 718.792C111.489 722.065 111.943 724.787 112.542 727.059C113.378 730.233 114.505 732.576 116.263 734.334C118.022 736.093 120.364 737.22 123.539 738.056Z" stroke="#1E84B5" stroke-opacity="0.2"/>
<path d="M1808.61 60C1804.42 60 1801.02 56.5909 1801.02 52.4026V7.59745C1801.02 3.40914 1804.42 0 1808.61 0C1812.7 0 1816.11 3.40914 1816.11 7.59745V52.4026C1816.11 56.5909 1812.7 60 1808.61 60Z" fill="#1E84B5" fill-opacity="0.1"/>
<path d="M1778.61 29.9998C1778.61 25.8115 1782.02 22.4023 1786.11 22.4023H1831.01C1835.2 22.4023 1838.51 25.8115 1838.51 29.9998C1838.51 34.1881 1835.2 37.5972 1831.01 37.5972H1786.11C1782.02 37.5972 1778.61 34.1881 1778.61 29.9998Z" fill="#1E84B5" fill-opacity="0.1"/>
<path d="M958.996 770C954.808 770 951.398 766.591 951.398 762.403V717.597C951.398 713.409 954.808 710 958.996 710C963.087 710 966.496 713.409 966.496 717.597V762.403C966.496 766.591 963.087 770 958.996 770Z" fill="#EFF8FF"/>
<path d="M958.996 769.5C955.084 769.5 951.898 766.315 951.898 762.403V717.597C951.898 713.685 955.084 710.5 958.996 710.5C962.806 710.5 965.996 713.681 965.996 717.597V762.403C965.996 766.319 962.806 769.5 958.996 769.5Z" stroke="#1E84B5" stroke-opacity="0.2"/>
<path d="M929 740C929 735.811 932.409 732.402 936.5 732.402H981.403C985.591 732.402 988.903 735.811 988.903 740C988.903 744.188 985.591 747.597 981.403 747.597H936.5C932.409 747.597 929 744.188 929 740Z" fill="#EFF8FF"/>
<path d="M929.5 740C929.5 736.083 932.689 732.902 936.5 732.902H981.403C985.306 732.902 988.403 736.079 988.403 740C988.403 743.92 985.306 747.097 981.403 747.097H936.5C932.689 747.097 929.5 743.916 929.5 740Z" stroke="#1E84B5" stroke-opacity="0.2"/>
<path d="M25.0031 132.844C21.5128 132.844 18.6719 130.003 18.6719 126.513V89.175C18.6719 85.6847 21.5128 82.8438 25.0031 82.8438C28.4121 82.8438 31.253 85.6847 31.253 89.175V126.513C31.253 130.003 28.4121 132.844 25.0031 132.844Z" fill="#EFF8FF"/>
<path d="M25.0031 132.344C21.7889 132.344 19.1719 129.727 19.1719 126.513V89.175C19.1719 85.9608 21.7889 83.3438 25.0031 83.3438C28.1318 83.3438 30.753 85.9566 30.753 89.175V126.513C30.753 129.731 28.1318 132.344 25.0031 132.344Z" stroke="#1E84B5" stroke-opacity="0.2"/>
<path d="M0 107.843C0 104.353 2.84092 101.512 6.25001 101.512H43.6688C47.1591 101.512 49.9188 104.353 49.9188 107.843C49.9188 111.333 47.1591 114.174 43.6688 114.174H6.25001C2.84092 114.174 0 111.333 0 107.843Z" fill="#EFF8FF"/>
<path d="M0.5 107.843C0.5 104.625 3.12124 102.012 6.25001 102.012H43.6688C46.8745 102.012 49.4188 104.62 49.4188 107.843C49.4188 111.065 46.8746 113.674 43.6688 113.674H6.25001C3.12124 113.674 0.5 111.061 0.5 107.843Z" stroke="#1E84B5" stroke-opacity="0.2"/>
</svg>

<svg xmlns="http://www.w3.org/2000/svg" width="1839" height="771" fill="none" viewBox="0 0 1839 771"><path fill="#1e84b5" d="M1778 746.436c-20.36 2.291-22.15 4.2-24.44 24.564-2.29-20.364-4.2-22.273-24.56-24.564 20.36-2.291 22.27-4.072 24.56-24.436 2.29 20.364 4.08 22.145 24.44 24.436"/><path stroke="#1e84b5" stroke-opacity=".2" d="M1717.85 725.189c3.46.911 7.69 1.581 12.87 2.222-5.18.645-9.41 1.325-12.87 2.249-4.36 1.167-7.56 2.733-9.95 5.15-2.4 2.416-3.94 5.635-5.09 10.015-.91 3.474-1.58 7.707-2.22 12.893-.65-5.186-1.33-9.42-2.25-12.895-1.17-4.381-2.73-7.599-5.15-10.015-2.41-2.415-5.63-3.982-10.01-5.148-3.48-.924-7.71-1.604-12.9-2.249 5.19-.641 9.42-1.311 12.9-2.222 4.38-1.149 7.59-2.692 10.01-5.085s3.98-5.59 5.15-9.955c.92-3.461 1.6-7.686 2.25-12.868.64 5.182 1.31 9.406 2.22 12.867 1.15 4.363 2.69 7.56 5.09 9.954 2.39 2.394 5.59 3.938 9.95 5.087ZM123.539 738.056c2.272.598 4.994 1.053 8.267 1.478-3.274.428-5.996.889-8.269 1.496-3.175.849-5.517 1.993-7.275 3.768s-2.885 4.133-3.72 7.319c-.599 2.28-1.053 5.009-1.478 8.284-.428-3.276-.889-6.005-1.496-8.286-.849-3.187-1.992-5.545-3.766-7.319s-4.132-2.918-7.32-3.766c-2.28-.607-5.01-1.068-8.286-1.496 3.276-.425 6.004-.88 8.285-1.478 3.186-.836 5.544-1.962 7.319-3.72s2.919-4.1 3.767-7.276c.608-2.272 1.069-4.995 1.497-8.268.425 3.273.879 5.995 1.478 8.267.836 3.174 1.963 5.517 3.721 7.275s4.101 2.886 7.276 3.722Z"/><path fill="#1e84b5" fill-opacity=".1" d="M1808.61 60c-4.19 0-7.59-3.41-7.59-7.597V7.597c0-4.188 3.4-7.597 7.59-7.597 4.09 0 7.5 3.41 7.5 7.597v44.806c0 4.188-3.41 7.597-7.5 7.597"/><path fill="#1e84b5" fill-opacity=".1" d="M1778.61 30c0-4.189 3.41-7.598 7.5-7.598h44.9c4.19 0 7.5 3.41 7.5 7.598s-3.31 7.597-7.5 7.597h-44.9c-4.09 0-7.5-3.409-7.5-7.597"/><path fill="#eff8ff" d="M958.996 770c-4.188 0-7.598-3.409-7.598-7.597v-44.806c0-4.188 3.41-7.597 7.598-7.597 4.091 0 7.5 3.409 7.5 7.597v44.806c0 4.188-3.409 7.597-7.5 7.597"/><path stroke="#1e84b5" stroke-opacity=".2" d="M958.996 769.5c-3.912 0-7.098-3.185-7.098-7.097v-44.806c0-3.912 3.186-7.097 7.098-7.097 3.81 0 7 3.181 7 7.097v44.806c0 3.916-3.19 7.097-7 7.097Z"/><path fill="#eff8ff" d="M929 740c0-4.189 3.409-7.598 7.5-7.598h44.903c4.188 0 7.5 3.409 7.5 7.598 0 4.188-3.312 7.597-7.5 7.597H936.5c-4.091 0-7.5-3.409-7.5-7.597"/><path stroke="#1e84b5" stroke-opacity=".2" d="M929.5 740c0-3.917 3.189-7.098 7-7.098h44.903c3.903 0 7 3.177 7 7.098s-3.097 7.097-7 7.097H936.5c-3.811 0-7-3.181-7-7.097Z"/><path fill="#eff8ff" d="M25.003 132.844a6.34 6.34 0 0 1-6.331-6.331V89.175a6.34 6.34 0 0 1 6.331-6.331c3.41 0 6.25 2.84 6.25 6.331v37.338c0 3.49-2.84 6.331-6.25 6.331"/><path stroke="#1e84b5" stroke-opacity=".2" d="M25.003 132.344a5.84 5.84 0 0 1-5.831-5.831V89.175a5.84 5.84 0 0 1 5.831-5.831c3.129 0 5.75 2.613 5.75 5.831v37.338c0 3.218-2.621 5.831-5.75 5.831Z"/><path fill="#eff8ff" d="M0 107.843c0-3.49 2.84-6.331 6.25-6.331h37.419c3.49 0 6.25 2.841 6.25 6.331s-2.76 6.331-6.25 6.331H6.25c-3.41 0-6.25-2.841-6.25-6.331"/><path stroke="#1e84b5" stroke-opacity=".2" d="M.5 107.843c0-3.218 2.621-5.831 5.75-5.831h37.419c3.206 0 5.75 2.608 5.75 5.831 0 3.222-2.544 5.831-5.75 5.831H6.25c-3.129 0-5.75-2.613-5.75-5.831Z"/></svg>
